core/assets/icons/calls_incomming.filled.svg

<svg width="24" height="24" viewBox="0 0 24 24" xmlns="http://www.w3.org/2000/svg"><g id="calls-incomming=filled"><g id="Union"><path d="M20.7727 16.3845L20.7715 16.3832L20.7705 16.3822C20.6242 16.2215 20.4227 16.1187 20.205 16.0957L20.2031 16.0954L20.2012 16.0953C19.9751 16.0735 19.7948 16.0518 19.6608 16.0327C18.2939 15.8378 16.9647 15.437 15.7175 14.8448C15.6037 14.7913 15.4787 14.7634 15.3547 14.7634C15.2833 14.7634 15.2116 14.7724 15.1417 14.7905C14.9491 14.8403 14.7806 14.9564 14.6653 15.1174L13.2908 17.0395C10.4878 15.7575 8.24318 13.5122 6.96076 10.7093L8.88611 9.33325L8.88505 9.33399C9.11344 9.17188 9.23942 8.91264 9.2391 8.64801C9.23914 8.5262 9.21248 8.40221 9.15764 8.28681C8.56407 7.03929 8.16239 5.70912 7.96633 4.34132C7.94731 4.21056 7.92639 4.02827 7.90334 3.7981C7.88149 3.58037 7.77935 3.37698 7.61571 3.22928C7.45207 3.0809 7.23953 2.99995 7.02061 3H3.4379C3.08506 2.99996 2.74562 3.13373 2.48768 3.37382C2.22937 3.61433 2.07217 3.94408 2.04768 4.29604C2.01572 4.74459 2.00005 5.11358 2 5.40682C2.00024 14.5713 9.42816 21.9994 18.5921 21.9996C18.8864 21.9996 19.2551 21.9827 19.7024 21.9519C20.0545 21.9274 20.3844 21.7702 20.6251 21.5122C20.8648 21.2541 20.9989 20.9141 20.9989 20.5613V17.3582L20.9996 16.9787V16.9752C20.9996 16.7555 20.9172 16.5457 20.7727 16.3845Z"/><path d="M15.4997 7.46964V3.28027H13.9998V10.0301H20.7496V8.53016H16.5605L21.03 4.06064L19.9694 3L15.4997 7.46964Z"/></g></g></svg>

<svg xmlns="http://www.w3.org/2000/svg" width="24" height="24" fill="none"><g fill="#191C22"><path d="M20.773 16.384h-.002v-.002a.893.893 0 0 0-.566-.286h-.004a12.264 12.264 0 0 1-.54-.063 13.703 13.703 0 0 1-3.944-1.188.857.857 0 0 0-.575-.055.847.847 0 0 0-.477.327l-1.374 1.922a12.824 12.824 0 0 1-6.33-6.33l1.925-1.376v.001a.84.84 0 0 0 .272-1.047A13.711 13.711 0 0 1 7.966 4.34c-.019-.13-.04-.313-.063-.543A.886.886 0 0 0 7.021 3H3.438a1.394 1.394 0 0 0-1.39 1.296A16.16 16.16 0 0 0 2 5.406C2 14.572 9.428 22 18.592 22c.294 0 .663-.017 1.11-.048A1.395 1.395 0 0 0 21 20.562v-3.587c0-.22-.082-.43-.226-.59Z"/><path d="M15.5 7.47V3.28H14v6.75h6.75v-1.5h-4.19l4.47-4.47L19.97 3 15.5 7.47Z"/></g></svg>
